X: 21453
M: 2/4
L: 1/16
K: C
e2ef g2c2 | e2{e}d^c defg | a2de f2B2 | cc'ba gagf |\
e2ef g2c2 | e2{e}d^c defg | a2de f2B2 | cc'ge "^Fin."c2 H|]
e2 e4 e2 | e2e2{g}f2e2 | e2d2e2d2 | e2c2d2c2 |\
e2 e4 e2 | e2e2 {g}f2e2 | e2d2e2d2 | c2eg "^D.C."c'2 |]
de |\
d2 b4 bc' | b2a2 aba2 | c2 a4 ab | a2g2 gag2 |\
d2 b4 bc' | b2a2 aba2 | d2a2b2a2 | a2g2"^D.C."g2 |]


